X:1
T:Title
%%score { ( 1 3 ) | ( 2 4 ) }
L:1/8
M:3/4
K:F
V:1 treble nm="Grand Piano"
V:3 treble 
V:2 bass 
V:4 bass 
V:1
 z2 z2[Q:1/4=94] [FA][GB] | [Ac]3 A FG | F2 E2 GA | B3 E FG |[M:2/4] A4 |[M:1/4] A[GB] | %6
[M:3/4] [Ac]3 A FG | F2 E2 [DG][DA] | [DB]3 D EC |[M:2/4] F4 |[M:1/4] cc | %11
[M:3/4] [Fd]3 [DF] [DB][Fd] | c2 A2 cd | c3 [EG] FG |[M:2/4] A4 |[M:1/4] cc | %16
[M:3/4] [Fd]3 [DF] [FB][Fd] | c2 A2 cd | [Ec]3 [EB] [EG][EA] |[M:2/4] F4 |] %20
V:2
 z2 z2 [F,C][F,C] | [F,C]3 [F,CF] [F,A,C][F,A,C] | [G,B,C]2 [G,B,C]2 [B,CE][A,CE] | %3
 [G,CE]3 [C,B,C] [D,B,C][E,B,C] |[M:2/4] [A,C]2 C2 |[M:1/4] [F,CF][F,C] | %6
[M:3/4] [F,C]3 [F,CF] [F,A,C][F,A,C] | [G,B,C]2 [G,B,C]2 [B,,G,][A,,^F,] | %8
 [G,,G,]3 [B,,G,] [C,G,C][E,B,] |[M:2/4] [F,A,C]4 |[M:1/4] [F,A,F][F,A,F] | %11
[M:3/4] [B,,B,]3 [B,,B,] [B,,F,][B,,B,] | [F,A,F]2 [F,CF]2 [F,A,F][F,A,F] | %13
 [G,B,E]3 [C,B,] [D,B,D][E,B,C] |[M:2/4] [A,C]2 C2 |[M:1/4] [F,A,F][F,A,F] | %16
[M:3/4] [B,,B,]3 [B,,B,] [B,,F,][B,,B,] | [F,A,F]2 [F,CF]2 [F,A,F][F,A,F] | %18
 [C,G,]3 [C,G,] [C,B,][C,C] |[M:2/4] [F,A,]4 |] %20
V:3
 x6 | x6 | x6 | x6 |[M:2/4] z2 F2 |[M:1/4] x2 |[M:3/4] x6 | x6 | x6 |[M:2/4] x4 |[M:1/4] x2 | %11
[M:3/4] x6 | x6 | x6 |[M:2/4] z2 F2 |[M:1/4] x2 |[M:3/4] x6 | x6 | x6 |[M:2/4] x4 |] %20
V:4
 x6 | x6 | x6 | x6 |[M:2/4] F,4 |[M:1/4] x2 |[M:3/4] x6 | x6 | x6 |[M:2/4] x4 |[M:1/4] x2 | %11
[M:3/4] x6 | x6 | x6 |[M:2/4] F,4 |[M:1/4] x2 |[M:3/4] x6 | x6 | x6 |[M:2/4] x4 |] %20

